/* XPM */
static char *_c2944b5a9614bd3c8bd4cf860eceff58sT4yG5z2aCJX7ol[] = {
/* columns rows colors chars-per-pixel */
"32 32 7 1 ",
"  c #D7CB8D",
". c #D7C185",
"X c #C8B77A",
"o c #B8A875",
"O c #AE9F76",
"+ c #A59467",
"@ c #9E8B61",
/* pixels */
"   X.X.       .  ..          .XO",
"X........XXXX........XXXX...X..o",
"..XX..XXoOooXXX...XXooXo.X.ooXXo",
"XXXooXX..XXX..ooXXX...X...XXoooo",
"oooXXX.XX...XXXXoooooX..XoooX..O",
".XXoooXX..XoooooXX....XXXXX...XO",
"oo..XoooooXXXXXoooXooooXoXXXXooO",
"+OO+O+++OO++@@@@@++++@+@@@@@++@@",
".  .o         .O     .  .XXooXoX",
"....XXX...XXX..o..XX..XX...XX...",
"XX....XXoo.XoooooXoooXX.XoooooX.",
".oXXXX.......XoOXooX......XXXX..",
".XoooooX.XXXX..O.XXXX.oXooooXXXX",
"ooXX..X..oooXX.OXX....XX.X..oooo",
"XooooXooXXoXoooOoooXoXXXXooooXXX",
"@@@@+@+++OO+@+@@@@@@@++++O+OO+@@",
".    . ..XXX           .    ..Xo",
"XXX...XXX......XX.XXXXXXXX..XX.o",
"...XoooOooXXXX........X...XooooO",
"X.....XX.XooooXoXXX..Xo.XXoXX..O",
"ooXX.XooooXX...X.XooX.XoooooXX.o",
".Xoo..X.XXX.XoooooX.....XXX....o",
"ooXXXXoXooooooXXoXXXXoooooooXXoO",
"++@++O+OOOO++@@@@@++OO+++@+@@@@@",
"  XoX.    . ..Xo     o  .XX.    ",
".ooXoX..XXXXX..oXXX...XXXX..XX..",
"oX.....XXooooXXooXooX.....XXX..X",
"...XXXX...XXXoooX...XXoX.XoOooXX",
"XXXoooooXX....XOXXX...XooooXX...",
"oooXX.....ooXX.ooooXX..X.XXooooo",
"XXoooooXXXXoXooOXXXXoXooooooXoXX",
"@@+++@+@@@++O+OOOO+++@@+@@@@@@@@"
};
