/* XPM */
static char *_15d3ec8a6fb473df30bb177385c24e7vmx5YMUkimkSo89W[] = {
/* columns rows colors chars-per-pixel */
"32 32 7 1 ",
"  c #C29D62",
". c #B8945F",
"X c #AF8F55",
"o c #9F844D",
"O c #967441",
"+ c #7E6237",
"@ c #67502C",
/* pixels */
"   X.X.       .  ..          .XO",
"X........XXXX........XXXX...X..o",
"..XX..XXoOooXXX...XXooXo.X.ooXXo",
"XXXooXX..XXX..ooXXX...X...XXoooo",
"oooXXX.XX...XXXXoooooX..XoooX..O",
".XXoooXX..XoooooXX....XXXXX...XO",
"oo..XoooooXXXXXoooXooooXoXXXXooO",
"+OO+O+++OO++@@@@@++++@+@@@@@++@@",
".  .o         .O     .  .XXooXoX",
"....XXX...XXX..o..XX..XX...XX...",
"XX....XXoo.XoooooXoooXX.XoooooX.",
".oXXXX.......XoOXooX......XXXX..",
".XoooooX.XXXX..O.XXXX.oXooooXXXX",
"ooXX..X..oooXX.OXX....XX.X..oooo",
"XooooXooXXoXoooOoooXoXXXXooooXXX",
"@@@@+@+++OO+@+@@@@@@@++++O+OO+@@",
".    . ..XXX           .    ..Xo",
"XXX...XXX......XX.XXXXXXXX..XX.o",
"...XoooOooXXXX........X...XooooO",
"X.....XX.XooooXoXXX..Xo.XXoXX..O",
"ooXX.XooooXX...X.XooX.XoooooXX.o",
".Xoo..X.XXX.XoooooX.....XXX....o",
"ooXXXXoXooooooXXoXXXXoooooooXXoO",
"++@++O+OOOO++@@@@@++OO+++@+@@@@@",
"  XoX.    . ..Xo     o  .XX.    ",
".ooXoX..XXXXX..oXXX...XXXX..XX..",
"oX.....XXooooXXooXooX.....XXX..X",
"...XXXX...XXXoooX...XXoX.XoOooXX",
"XXXoooooXX....XOXXX...XooooXX...",
"oooXX.....ooXX.ooooXX..X.XXooooo",
"XXoooooXXXXoXooOXXXXoXooooooXoXX",
"@@+++@+@@@++O+OOOO+++@@+@@@@@@@@"
};
