/* XPM */
static char *e4f212f9926042eeba2a7ec1bbc8f90aIAmHyb5TmXdrBm30[] = {
/* columns rows colors chars-per-pixel */
"32 32 7 1 ",
"  c #53381A",
". c #4F3218",
"X c #492F17",
"o c #3E2912",
"O c #3A2411",
"+ c #301E0E",
"@ c #291A0C",
/* pixels */
"   X.X.       .  ..          .XO",
"X........XXXX........XXXX...X..o",
"..XX..XXoOooXXX...XXooXo.X.ooXXo",
"XXXooXX..XXX..ooXXX...X...XXoooo",
"oooXXX.XX...XXXXoooooX..XoooX..O",
".XXoooXX..XoooooXX....XXXXX...XO",
"oo..XoooooXXXXXoooXooooXoXXXXooO",
"+OO+O+++OO++@@@@@++++@+@@@@@++@@",
".  .o         .O     .  .XXooXoX",
"....XXX...XXX..o..XX..XX...XX...",
"XX....XXoo.XoooooXoooXX.XoooooX.",
".oXXXX.......XoOXooX......XXXX..",
".XoooooX.XXXX..O.XXXX.oXooooXXXX",
"ooXX..X..oooXX.OXX....XX.X..oooo",
"XooooXooXXoXoooOoooXoXXXXooooXXX",
"@@@@+@+++OO+@+@@@@@@@++++O+OO+@@",
".    . ..XXX           .    ..Xo",
"XXX...XXX......XX.XXXXXXXX..XX.o",
"...XoooOooXXXX........X...XooooO",
"X.....XX.XooooXoXXX..Xo.XXoXX..O",
"ooXX.XooooXX...X.XooX.XoooooXX.o",
".Xoo..X.XXX.XoooooX.....XXX....o",
"ooXXXXoXooooooXXoXXXXoooooooXXoO",
"++@++O+OOOO++@@@@@++OO+++@+@@@@@",
"  XoX.    . ..Xo     o  .XX.    ",
".ooXoX..XXXXX..oXXX...XXXX..XX..",
"oX.....XXooooXXooXooX.....XXX..X",
"...XXXX...XXXoooX...XXoX.XoOooXX",
"XXXoooooXX....XOXXX...XooooXX...",
"oooXX.....ooXX.ooooXX..X.XXooooo",
"XXoooooXXXXoXooOXXXXoXooooooXoXX",
"@@+++@+@@@++O+OOOO+++@@+@@@@@@@@"
};
